!!!OTL: Reiterlied
!!!ARE: Europa, Mitteleuropa, Deutschland
!!!SCT: A0427
!!!YEM: Copyright 1995, estate of Helmut Schaffrath.
**kern
*ICvox
*Ivox
*M6/2
*k[b-e-]
*g:
{2g
=1
1b-
2a
1b-
2cc
=2
1.dd
1g}
{2gg
=3
1ffn
4ee
4dd
1cc#
2dd
=4
2ffn
1ee
1dd}
{2g
=5
1b-
2a
1b-
2cc
=6
1.dd
1g}
{2gg
=7
1ffn
4ee
4dd
1cc#
2dd
=8
2ffn
1ee
1dd}
{2cc
=9
1dd
2ee-
1ffn
2gg
=10
1ffn
2dd
2b-
1cc
=11
1b-}
{2cc
1dd
2b-
=12
2cc
1a
1g}
{2g
=13
1dd
2.b-
4a
2b-
2cc
=14
1dd
2dd}
{1dd
2cc
=15
1dd
2ee
1ffn}
{2aa
=16
1gg
4ffn
4ee
1dd
2cc#
=17
1dd
2ee}
{2ffn
2gg
2ee
=18
0dd
2r}
==
!!!AGN: Romanze, Ballade, Lied, Kriegslied
!! Peter Schoeffer 1513 No. 55.
!!!ONB: ESAC (Essen Associative Code) Database: ALTDEU
!!!AMT: compound duple
!!!AIN: vox
!!!EED: Helmut Schaffrath
!!!EEV: 1.0
*-
